client/public/img/misc/mouse0_icon.svg

<?xml version="1.0" encoding="UTF-8" standalone="no"?>
<svg
   width="18"
   height="26"
   viewBox="0 0 18 26"
   fill="none"
   version="1.1"
   id="svg6"
   xmlns="http://www.w3.org/2000/svg"
   xmlns:svg="http://www.w3.org/2000/svg">
  <defs
     id="defs6" />
  <path
     d="M1.03054 19.1929L2.33733 18.7783C2.65774 19.8187 3.12817 20.8336 3.72559 21.7488L2.42899 22.2852C2.32004 22.3433 2.2629 22.3516 2.17162 22.182L0.942577 19.4358C0.884446 19.2863 0.889659 19.2326 1.03054 19.1929Z"
     fill="#333333"
     id="path1" />
  <path
     d="M0.772261 14.3779H1.87739C1.85708 14.8336 1.84908 15.2782 1.84908 15.679C1.84908 16.6073 1.99289 17.5758 2.26305 18.528L0.942494 18.6572C0.822112 18.6681 0.767191 18.6549 0.763779 18.4833L0.589744 14.5735C0.58545 14.4365 0.614846 14.3851 0.772261 14.3779Z"
     fill="#333333"
     id="path2" />
  <path
     d="M16.7093 7.8322C16.8724 8.91717 17.0451 10.0653 17.3086 11.2402H11.4731V0.265625C15.6545 0.816587 16.1199 3.91203 16.7093 7.8322Z"
     fill="#333333"
     id="path3" />
  <path
     d="M11.0307 0.217584V11.2397H9.03955V0.217588C9.35192 0.191218 9.68335 0.177734 10.0351 0.177734C10.3869 0.177734 10.7183 0.191217 11.0307 0.217584Z"
     fill="#333333"
     id="path4" />
  <path
     d="M8.59667 0.265625V11.2402H2.76123C3.02475 10.0653 3.19738 8.91719 3.3605 7.83223C3.94991 3.91205 4.41534 0.816603 8.59667 0.265625Z"
     fill="#FF0000"
     id="path5" />
  <path
     d="M17.439 11.7932C17.4298 11.7563 17.4207 11.7195 17.4118 11.6826H2.65795L2.65488 11.6952C2.64953 11.7171 2.64415 11.7391 2.63872 11.761L2.63073 11.7932C2.36827 12.8488 2.2915 14.4494 2.2915 15.6791C2.2915 19.946 5.48664 25.1754 10.0406 25.1782C14.5946 25.1754 17.7782 19.946 17.7782 15.6791C17.7782 14.4494 17.7015 12.8488 17.439 11.7932Z"
     fill="#333333"
     id="path6" />
</svg>

<svg xmlns="http://www.w3.org/2000/svg" width="18" height="26" fill="none"><path fill="#333" d="m1.03 19.193 1.307-.415c.32 1.04.791 2.056 1.389 2.97l-1.297.537c-.109.058-.166.067-.257-.103l-1.23-2.746c-.058-.15-.052-.203.089-.243m-.259-4.815h1.105c-.02.456-.028.9-.028 1.301 0 .928.144 1.897.414 2.849l-1.32.13c-.12.01-.176-.003-.18-.175l-.173-3.91c-.005-.136.025-.188.182-.195M16.71 7.832c.162 1.085.335 2.233.599 3.408h-5.836V.266c4.182.55 4.647 3.646 5.236 7.566M11.03.218V11.24H9.04V.218q.467-.04.995-.04.527 0 .996.04"/><path fill="red" d="M8.597.266V11.24H2.76c.264-1.175.436-2.323.6-3.408C3.95 3.912 4.415.817 8.596.266"/><path fill="#333" d="m17.439 11.793-.027-.11H2.658l-.003.012-.016.066-.008.032c-.263 1.056-.34 2.656-.34 3.886 0 4.267 3.196 9.496 7.75 9.5 4.554-.004 7.737-5.233 7.737-9.5 0-1.23-.076-2.83-.339-3.886"/></svg>
